src/lib/packages/icons/src/assets/line/menu-square.svg

<svg xmlns="http://www.w3.org/2000/svg" width="24" height="24" fill="none"><path fill="currentColor" d="M16 9.75H8a.75.75 0 0 1 0-1.5h8a.75.75 0 0 1 0 1.5Zm.75 2.25a.75.75 0 0 0-.75-.75H8a.75.75 0 0 0 0 1.5h8a.75.75 0 0 0 .75-.75Zm0 3a.75.75 0 0 0-.75-.75H8a.75.75 0 0 0 0 1.5h8a.75.75 0 0 0 .75-.75Zm5 2.625V6.375c0-2.66-1.465-4.125-4.125-4.125H6.375c-2.66 0-4.125 1.465-4.125 4.125v11.25c0 2.66 1.465 4.125 4.125 4.125h11.25c2.66 0 4.125-1.465 4.125-4.125ZM17.625 3.75c1.84 0 2.625.785 2.625 2.625v11.25c0 1.84-.785 2.625-2.625 2.625H6.375c-1.84 0-2.625-.785-2.625-2.625V6.375c0-1.84.785-2.625 2.625-2.625h11.25Z"/></svg>

<svg width="24" height="24" viewBox="0 0 24 24" fill="none" xmlns="http://www.w3.org/2000/svg">
<path d="M16 9.75H8C7.586 9.75 7.25 9.414 7.25 9C7.25 8.586 7.586 8.25 8 8.25H16C16.414 8.25 16.75 8.586 16.75 9C16.75 9.414 16.414 9.75 16 9.75ZM16.75 12C16.75 11.586 16.414 11.25 16 11.25H8C7.586 11.25 7.25 11.586 7.25 12C7.25 12.414 7.586 12.75 8 12.75H16C16.414 12.75 16.75 12.414 16.75 12ZM16.75 15C16.75 14.586 16.414 14.25 16 14.25H8C7.586 14.25 7.25 14.586 7.25 15C7.25 15.414 7.586 15.75 8 15.75H16C16.414 15.75 16.75 15.414 16.75 15ZM21.75 17.625V6.375C21.75 3.715 20.285 2.25 17.625 2.25H6.375C3.715 2.25 2.25 3.715 2.25 6.375V17.625C2.25 20.285 3.715 21.75 6.375 21.75H17.625C20.285 21.75 21.75 20.285 21.75 17.625ZM17.625 3.75C19.465 3.75 20.25 4.535 20.25 6.375V17.625C20.25 19.465 19.465 20.25 17.625 20.25H6.375C4.535 20.25 3.75 19.465 3.75 17.625V6.375C3.75 4.535 4.535 3.75 6.375 3.75H17.625Z" fill="currentColor"/>
</svg>
